X: 36731
T: Sheep Island
R: waltz
M: 3/4
K: Gmajor
|:G2E2 BA|G2E2 FE|DEFGAc|B2 BcBA|
G2E2 BA|G2E2 FE|DEFGAG|E4 F2:|
|:G2 GABc|d2 d2 ed|c2 cBAc|B2 B2 cB|
AFDFAB|GEBEGA|1 F2 FEFG|E2E DF:|2 FEEE FG|E6||

